X:1
T:St. Helena (Allen), 10.10.10.10
T:St. Helena (Allen), 10.10.10.10
T:Alfred Reginald Allen, 1911
T:Public Domain Courtesy of the Cyber Hymnal™
C:Alfred Reginald Allen, 1911
Z:Public Domain
Z:Courtesy of the Cyber Hymnal™
%%score ( 1 2 ) ( 3 4 )
L:1/8
Q:1/4=115
M:3/4
K:G
V:1 treble 
V:2 treble 
V:3 bass 
V:4 bass 
V:1
 [Gd]2 [GB]2 [FA]2 | [FA]3 [EG] [EG]2 | [^DB]2 [DG]2 [DF]2 | E6 | [CD]2 [CE]2 [CF]2 | %5
 [B,G]2 [FA]2 [GB]2 | [GB]2 [FA]2 [EG]2 | A6 (z2 [CD]2) | [Gd]2 [GB]2 [FA]2 | [FA]3 [EG] [EG]2 | %10
 [^DB]2 [DG]2 [DF]2 | E6 | [B,D]2 [^CE]2 [=CF]2 | [B,G]2 [EA]2 [=FB]2 | [Ec]2 [CE]2 [CA]2 | %15
 [B,G]6 |] %16
V:2
 x6 | x6 | x6 | (E4 C2) | x6 | x6 | x6 | (G2 F4) x4 | x6 | x6 | x6 | (E2 C2 _B,2) | x6 | x6 | x6 | %15
 x6 |] %16
V:3
 [G,B,]2 [G,D]2 [D,C]2 | [^D,C]3 [E,B,] [E,B,]2 | [B,,A,]2 [B,,B,]2 [B,,A,]2 | [C,G,]6 | %4
 [D,F,]2 [D,G,]2 [D,A,]2 | [E,G,]2 [E,B,]2 [E,D]2 | [A,,D]2 [A,,^C]2 [A,,C]2 | (z4 [D,,D,F,]2) x4 | %8
 [G,B,]2 [G,D]2 [D,C]2 | [^D,C]3 [E,B,] [E,B,]2 | [B,,A,]2 [B,,B,]2 [B,,A,]2 | G,6 | %12
 [D,G,]2 [D,_B,]2 [D,A,]2 | [E,G,]2 [C,E,]2 [G,,G,]2 | [A,,G,]2 [A,,G,]2 [D,F,]2 | G,6 |] %16
V:4
 x6 | x6 | x6 | x6 | x6 | x6 | x6 | [D,C]6 x4 | x6 | x6 | x6 | (C,4 ^C,2) | x6 | x6 | x6 | G,6 |] %16

